X:1
T:O What Have I Done?
T:O What Have I Done?
T:W. Chester Dollar
T:Marion Clyde, 1913
T:Public Domain Courtesy of the Cyber Hymnal™
T:Public Domain Courtesy of the Cyber Hymnal™
C:W. Chester Dollar
Z:Public Domain
Z:Courtesy of the Cyber Hymnal™
%%score ( 1 2 ) ( 3 4 )
L:1/8
Q:1/4=78
M:4/4
K:Bb
V:1 treble 
V:2 treble 
V:3 bass 
V:4 bass 
V:1
 F/G/B B | (z [DB]) [DF]/[EG]/[FB] [FB] x3 | [EG]([DF] F3) B/c/ dd | %3
w: 1.~When the gold- en|* sun from my sight’s|* des- * * cend- ed, And|
w: 2.~With my words and|* deeds I have bia-|* sed * * o- thers; How|
w: 3.~Have I hon- ored|* God with my ear-|* nest * * ef- forts, Striv-|
 (z [Fd]) [FB]/[FB]/[Fc] [Fd] x3 | c4- [Fc]d/=e/ ff | z [Bd] [FB]/[FB]/[Gc] [GB] x3 | %6
w: * I turn from earth|* and * its cares a-|* way, Oft- en to|
w: * it fills my soul|* with * un- told dis-|* may! Tho’ I would|
w: * ing His com- mands|* ev- * er to o-|* bey? Toil- ing in|
S [EG]([DF] F3) B/c/ dd | (z [Bd]) B/B/[Ad] [Ac] x3 | B4- !fermata![FB]!fine! || %9
w: * * * my mind comes the|* sol- emn quest- ion,|O what|
w: * * * re- call, they re-|* main for- ev- er;|O what|
w: * * * His name, prais- ing|* Him for bless- ings,|O what|
 [FB]/[FB]/[FB] [FB] | ([FB][FB]/[FB]/ [FB][FB] [FB])[EA]/[EA]/ [DB][Fc] | %11
w: * have I done|for * * * * * the Lord * to-|
w: * have I done|for * * * * * the Lord * to-|
w: * have I done|for * * * * * the Lord * to-|
 [Fd] ([Fd][Fc][Bd][Ae][Ae])[Fe][Fe] | [Fe][Fe]/ ([Fe]/[Fe][Fe] [Fe])[Ec]/[Ec]/ [Ec]F | %13
w: day? O * * * * what have|I done to * * * ad- vance His king-|
w: day? * * * * * * *||
w: day? * * * * * * *||
 ([EB][FB]/[FB]/[GB][GB] [FB])F/G/ BB | (z [DB]) [DF]/[EG]/[FB] [FB] x3 | %15
w: dom? * * * * * Have I sought one|* soul from the fold|
w: ||
w: ||
 [EG]([DF-] F3) B/c/!D.S.! |] %16
w: * as- * * tray?|
w: |
w: |
V:2
 x3 | B4- D/ D/ D D x | x2 (DD D)D x2 | d4- F/ F/ F F x | F F/ F/ =E G x4 | d4- B/ B/ B B x | %6
 x2 (DD D)D x2 | (d4- B/ B/ B B B/)B/ | F F/ F/ G G x || x3 | x8 | x8 | x7 F | x8 | %14
 B4- D/ D/ D D x | x2 (DD D)D |] %16
V:3
 z3 | z ([B,,F,]/[B,,F,]/[B,,F,][B,,F,] [B,,F,])[B,,B,]/[B,,B,]/ [B,,D][B,,D] | %2
w: |~ * * * * ~ ~ ~ ~|
 [B,,B,] ([B,,B,][B,,B,][B,,B,] [B,,B,])[B,,B,] z2 | %3
w: ~ ~ * * * ~|
 z ([B,,B,]/[B,,B,]/[B,,B,][B,,B,] [B,,B,])[D,B,]/[D,B,]/ [F,A,]B, | %4
w: ~ * * * * ~ ~ ~ ~|
 ([F,A,][F,A,]/[F,A,]/[C,G,][C,B,] [F,A,]) z3 | %5
w: ~ * * * * *|
 z ([B,F]/[B,F]/[B,F][B,F] [B,F])[D,B,]/[D,B,]/ [E,B,][E,B,] | %6
w: ~ * * * * ~ ~ ~ ~|
 [B,,B,] ([B,,B,][B,,B,][B,,B,][B,,B,][B,,B,]) z2 | %7
w: ~ ~ * * * *|
 z ([B,F]/[B,F]/[B,F][B,F] [B,F])[D,F]/[D,F]/ [F,F][F,E] | (DD/D/EE !fermata![B,,D]) || %9
w: ~ * * * * ~ ~ ~ ~|~ * * * * *|
 D,/D,/D, B,, | z B,/B,/ B,B, [D,B,][F,C]/[F,C]/ [G,B,][F,A,] | [D,B,][F,-B,]A,B, [F,C]CC,A,, | %12
w: ~ ~ ~ ~|~ O what have done ~ ~ ~ ~|* ~ ~ ~ * ~ ~ ~|
 z A,/A,/ A,A, [C,B,][F,A,]/[F,A,]/ [F,A,][D,A,] | B,D/D/ EE [B,,D] z3 | %14
w: Have I sought one soul * ~ ~ ~|~ ~ ~ from the a-|
 z [B,,F,]/[B,,F,]/ [B,,F,][B,,F,] [B,,F,][B,,B,]/[B,,B,]/ [B,,D][B,,D] | %15
w: * stray? * * * * * * *|
 [B,,B,][B,,B,][B,,B,][B,,B,] [B,,B,][B,,B,] |] %16
w: |
V:4
 x3 | x8 | x8 | x7 B, | x8 | x8 | x8 | x8 | x5 || x3 | D,4- x4 | x2 F,2- C,/C,/ x3 | C,4- x4 | %13
 B,,4- x4 | x8 | x6 |] %16

